X:1
T:Bashan, LM
T:Bashan, LM
T:Lowell Mason, 1844
T:Public Domain Courtesy of the Cyber Hymnal™
C:Lowell Mason, 1844
Z:Public Domain
Z:Courtesy of the Cyber Hymnal™
%%score ( 1 2 ) ( 3 4 )
L:1/8
Q:1/4=115
M:2/2
K:D
V:1 treble 
V:2 treble 
V:3 bass 
V:4 bass 
V:1
 [A,D]4 | [A,E]2 [DF]2 [DG]2 [DA]2 | [DB]4 [Gc]4 | [Fd]4 [Fd]4 | [Ec]2 [Ec]2 [Dd]2 [FB]2 | %5
 [EA]4 ^G4 | [CA]4 [EA]4 | [Ec]2 [EA]2 [Dd]2 [DA]2 | [EG]4 [EA]4 | [DF]4 [DF]4 | %10
 [DG]2 [DA]2 [DB]2 [Ge]2 | [Fd]4 [Ec]4 | [Fd]4 |] %13
V:2
 x4 | x8 | x8 | x8 | x8 | x4 (E2 D2) | x8 | x8 | x8 | x8 | x8 | x8 | x4 |] %13
V:3
 [D,F,]4 | [C,A,]2 [D,A,]2 [B,,B,]2 [F,A,]2 | G,4 [E,G,]4 | [D,A,]4 [D,A,]4 | %4
 A,2 [G,A,]2 [F,A,]2 [D,D]2 | [E,C]4 [E,B,]4 | [A,,A,]4 [A,,C]4 | [A,E]2 [G,C]2 [F,A,]2 [F,A,]2 | %8
 [E,B,]4 [A,,C]4 | [D,A,]4 [D,A,]4 | [B,,G,]2 [D,F,]2 G,2 [E,B,]2 | A,4 [A,,A,]4 | [D,A,]4 |] %13
V:4
 x4 | x8 | G,4 x4 | x8 | A,2 x6 | x8 | x8 | x8 | x8 | x8 | x4 G,2 x2 | A,4 x4 | x4 |] %13

